svg/fluentui-system-icons/ic_fluent_code_block_28_filled.svg

<svg width="28" height="28" viewBox="0 0 28 28" fill="none" xmlns="http://www.w3.org/2000/svg">
<path d="M3 6.75C3 4.67893 4.67893 3 6.75 3H21.25C23.3211 3 25 4.67893 25 6.75V21.25C25 23.3211 23.3211 25 21.25 25H6.75C4.67893 25 3 23.3211 3 21.25V6.75ZM12.0303 9.21967C11.7374 8.92678 11.2626 8.92678 10.9697 9.21967L6.71967 13.4697C6.42678 13.7626 6.42678 14.2374 6.71967 14.5303L10.9697 18.7803C11.2626 19.0732 11.7374 19.0732 12.0303 18.7803C12.3232 18.4874 12.3232 18.0126 12.0303 17.7197L8.31066 14L12.0303 10.2803C12.3232 9.98744 12.3232 9.51256 12.0303 9.21967ZM17.0303 9.21967C16.7374 8.92678 16.2626 8.92678 15.9697 9.21967C15.6768 9.51256 15.6768 9.98744 15.9697 10.2803L19.6893 14L15.9697 17.7197C15.6768 18.0126 15.6768 18.4874 15.9697 18.7803C16.2626 19.0732 16.7374 19.0732 17.0303 18.7803L21.2803 14.5303C21.5732 14.2374 21.5732 13.7626 21.2803 13.4697L17.0303 9.21967Z" fill="#212121"/>
</svg>

<svg xmlns="http://www.w3.org/2000/svg" width="28" height="28"><path d="M3 6.75A3.75 3.75 0 0 1 6.75 3h14.5A3.75 3.75 0 0 1 25 6.75v14.5A3.75 3.75 0 0 1 21.25 25H6.75A3.75 3.75 0 0 1 3 21.25V6.75Zm9.03 2.47a.75.75 0 0 0-1.06 0l-4.25 4.25a.75.75 0 0 0 0 1.06l4.25 4.25a.75.75 0 1 0 1.06-1.06L8.31 14l3.72-3.72a.75.75 0 0 0 0-1.06Zm5 0a.75.75 0 1 0-1.06 1.06L19.69 14l-3.72 3.72a.75.75 0 1 0 1.06 1.06l4.25-4.25a.75.75 0 0 0 0-1.06l-4.25-4.25Z"/></svg>
